X: 1
T: Bridie's Joy
M: 4/4
L: 1/8
R: reel
K: Dmaj
D2FA d2AF|GFEF GFEF|D2FA d2ed|1cdeg fdd2:|2cdeg fdde||
~f3e fedc|(3Bcd Ad BdAe|f2eg fded|cdeg fdde|
faea faed|(3Bcd Ad BdA2|d2ef ~g3e|~a3g fdd2||
